assets/icons/tram/tram_T3b_carto_RVB.svg

<svg id="tram_T3b_carto_RVB" xmlns="http://www.w3.org/2000/svg" width="311.7" height="311.8" viewBox="0 0 311.7 311.8">
	<path id="Tracé_17" data-name="Tracé 17" d="M28.3,311.8A28.338,28.338,0,0,1,0,283.5V28.3A28.338,28.338,0,0,1,28.3,0H283.4a28.338,28.338,0,0,1,28.3,28.3V283.4a28.338,28.338,0,0,1-28.3,28.3H28.3Z" fill="#fff"/>
	<path id="Tracé_18" data-name="Tracé 18" d="M171,214.6c-15.6,0-24.3-3.9-31.6-8.2l8.5-16.9a38.241,38.241,0,0,0,21.5,7.1c12.7,0,20.6-7.4,20.6-16.7,0-12.5-9.6-16.9-20.7-16.9H158V145h11.4c10.7,0,17.3-5.6,17.3-13.9,0-7-5.3-13.3-16.7-13.3a30.319,30.319,0,0,0-20.3,7.9l-7.9-16.1c9.3-6.2,19.3-9.7,33.1-9.7,22.3,0,35,13.3,35,27.8,0,11.3-6,20.3-17.6,24.6v.3c12.1,2.3,21.2,11.6,21.2,26.9,0,19.2-17.1,35.1-42.5,35.1m86.5-23.2a21.185,21.185,0,0,1-13.3-4.8v2.8H228.3V103.1h16.4v32.2c4.2-6.1,9-10.1,16.9-10.1,16.3,0,23.1,17.4,23.1,32.4.1,14-7.3,33.8-27.2,33.8m-2.1-52a10.847,10.847,0,0,0-7.6,3.1c-2.8,2.7-3.1,4.4-3.1,8v21.1c0,4.3,2.6,8.2,10,8.2,10.5,0,13.1-11.3,13.1-19.8,0-8.4-2-20.6-12.4-20.6m-171.3-17V212H60V122.4H26.4V102.8h91.3v19.6Z"/>
	<path id="Tracé_19" data-name="Tracé 19" d="M283.5,57.4H28.3A14.19,14.19,0,0,1,14.1,43.2V29.1A14.19,14.19,0,0,1,28.3,14.9H283.4a14.19,14.19,0,0,1,14.2,14.2V43.3a14.084,14.084,0,0,1-14.1,14.1m14.1,226.8V270a14.19,14.19,0,0,0-14.2-14.2H28.3A14.19,14.19,0,0,0,14.1,270v14.2a14.19,14.19,0,0,0,14.2,14.2H283.4a14.19,14.19,0,0,0,14.2-14.2" fill="#00643c"/>
</svg>

<?xml version="1.0" encoding="utf-8"?>
<!-- Generator: Adobe Illustrator 26.3.1, SVG Export Plug-In . SVG Version: 6.00 Build 0)  -->
<svg version="1.1" id="Layer_1" xmlns="http://www.w3.org/2000/svg" xmlns:xlink="http://www.w3.org/1999/xlink" x="0px" y="0px"
	 viewBox="0 0 311.8 311.8" style="enable-background:new 0 0 311.8 311.8;" xml:space="preserve">
<style type="text/css">
	.st0{fill:#FFFFFF;}
	.st1{fill:#00643C;}
</style>
<g>
	<path class="st0" d="M28.3,311.8C12.7,311.8,0,299.1,0,283.5V28.3C0,12.7,12.7,0,28.3,0h255.1c15.6,0,28.3,12.7,28.3,28.3v255.1
		c0,15.6-12.7,28.3-28.3,28.3H28.3z"/>
	<path d="M171,214.6c-15.6,0-24.3-3.9-31.6-8.2l8.5-16.9c4.6,3.2,12.2,7.1,21.5,7.1c12.7,0,20.6-7.4,20.6-16.7
		c0-12.5-9.6-16.9-20.7-16.9H158V145h11.4c10.7,0,17.3-5.6,17.3-13.9c0-7-5.3-13.3-16.7-13.3c-10.1,0-16.7,4.8-20.3,7.9l-7.9-16.1
		c9.3-6.2,19.3-9.7,33.1-9.7c22.3,0,35,13.3,35,27.8c0,11.3-6,20.3-17.6,24.6v0.3c12.1,2.3,21.2,11.6,21.2,26.9
		C213.5,198.7,196.4,214.6,171,214.6 M257.5,191.4c-4.7,0-10.1-1.9-13.3-4.8v2.8h-15.9v-86.3h16.4v32.2c4.2-6.1,9-10.1,16.9-10.1
		c16.3,0,23.1,17.4,23.1,32.4C284.8,171.6,277.4,191.4,257.5,191.4 M255.4,139.4c-3.3,0-5.8,1.4-7.6,3.1c-2.8,2.7-3.1,4.4-3.1,8
		v21.1c0,4.3,2.6,8.2,10,8.2c10.5,0,13.1-11.3,13.1-19.8C267.8,151.6,265.8,139.4,255.4,139.4 M84.1,122.4V212H60v-89.6H26.4v-19.6
		h91.3v19.6H84.1z"/>
	<path class="st1" d="M283.5,57.4H28.3c-7.8,0-14.2-6.3-14.2-14.2V29.1c0-7.8,6.3-14.2,14.2-14.2h255.1c7.8,0,14.2,6.3,14.2,14.2
		v14.2C297.6,51.1,291.3,57.4,283.5,57.4 M297.6,284.2V270c0-7.8-6.3-14.2-14.2-14.2H28.3c-7.8,0-14.2,6.3-14.2,14.2v14.2
		c0,7.8,6.3,14.2,14.2,14.2h255.1C291.3,298.4,297.6,292,297.6,284.2"/>
</g>
</svg>
